X:1
T:Flower Duet
T:Flower Duet
T:Lakmé
T:Delibes
C:Delibes
%%score 1 2
L:1/8
Q:1/4=55
M:6/8
K:F
V:1 treble nm="Hautbois" snm="Htbs."
V:2 treble nm="Flûte" snm="Fl."
V:1
"^\n" F(F/E/F/E/ D)(E/F/!breath!G) | F(F/E/F/E/) D(E/F/G) | F(F/G/F/G/) (A/B/A/G/F/E/) |1 %3
 (D/E/D/E/D/E/) C3 :|2 (D/E/D/E/D/E/)"^pizz." F/c/ F2 || c(e/d/c/d/ e)(e/c/c/e/) | %6
 c(e/d/c/d/) e(e/c/c/e/) | c(e/d/c/d/ e)(e/c/c/e/) | c(e/c/c/e/) c3 | B3 (B/F/D/B,/D/F/) | %10
 B d2 B2 D | _D3 (_d/d/B/F/B/d/) | F B2 F D2 | C(F/E/D/E/ F3) | z (_E/D/C/D/ E3) | %15
 z DB, !>!CD!breath!B, | !>!CDB, DB,!fermata!D | F(F/E/F/E/ D)(E/F/G) | F(F/E/F/E/ D)(E/F/G) | %19
 F(F/G/F/G/) (A/B/A/G/F/E/) | (D/E/D/E/D/E/) D{/F}ED |!mf!!>(! (c6!>)! |!mp! !fermata!f6) |] %23
V:2
 z (A2 A)(G/A/!breath!B) | z A2- A(G/A/B) | z (A/B/A/B/) (c/d/c/B/A/G/) |1 %3
 (F/G/F/G/F/G/) A"^pizz."A/e/A :|2 (F/G/F/G/F/G/) A F2 || F G3 (g/c'/c'/g/) | F A3 (a/e/e/a/) | %7
 F G3 (g/c'/c'/g/) | F(g/c'/c'/g/) c' c2 | d3 (d/B/F/D/F/B/) | %10
 d"^pizz."!tenuto!.B!tenuto!.F !tenuto!.B!tenuto!.dB | B3 (b/f/_d/B/d/f/) | b _d2 B2 F | A3 AdA | %14
 c3 cdA | !>!cBF z BF | !>!c"^rall"BF BF!fermata!B | F"^A Tempo" A3 (G/A/B) | F A3 (G/A/B) | %19
 f(a/b/a/b/) (c'/d'/c'/b/a/g/) | (f/g/f/g/"^Rall"f/g/) f{/a}gf | %21
 e!pp!"^pizz."!tenuto!.F!<(!!tenuto!.c !tenuto!.d!tenuto!.a!tenuto!.c'!<)! |!mp! !fermata!c'6 |] %23

